X: 42927
T: Willafjord
R: reel
M: 4/4
K: Dmajor
FG|:"D"A2FA- AFA^A|"G"B2GB- BGB^A|"D"A2FA- AFAF|"A"EFGA "A7"GFED|
"D"A2FA- AFA^A|"G"B2GB- BGB^A|"D"AD'C'B "A7"AGFE|"D"DD"A"C"D"D- D2zA:|
|:"D"f2df- fdd2|-"G"dggf gfed|"D"f2df- fdfe|"A"ce-ec eAce|
"D"f2df- fdd2|"G"-dggf gfed|"D"ABcd "A7"egfe|"D"f2dc-dc BA:|

